!! 00000] TT[00
!! NN
!!!OTL: Ni er lili ya
!!!ARE: Jilin, Yanbian
!! Ethnic Group: Chaoxian
!! III, 167
!!!SCT: C0286
!!!YEM: Copyright 1995, estate of Helmut Schaffrath.
**kern
*ICvox
*Ivox
*M3/4
*k[f#]
*G:
{4dd
4ee
4ee
=1
2.dd
=2
8ee
8dd
8ee
8gg
4ee
=3
4.dd
8gg
8ee
8dd}
=4
{4b
4.b
8a
=5
4dd
8b
8a
4g
=6
8a
8b
8a
8g
4e
=7
2.d}
=8
{2.g
=9
4d
4g
8b
8a
=10
8g
8a
8a
8g
4e
=11
2.d}
==
!!!AGN: Wuge. Chang fengshou
!! sehr bekannt. Die meisten sind im 3/4 oder 6/8.
!!!ONB: ESAC (Essen Associative Code) Database: CHINA
!!!AMT: simple triple
!!!AIN: vox
!!!EED: Helmut Schaffrath
!!!EEV: 1.0
*-
